!!!!SEGMENT: pl-wnifc--6735-n--002_klemczynski-julian--fantaisie-brillante-sur-la-romance-du-saule-romanza.krn
!!!cenid: 18xx:3977
!!!COM: Klemczyński, Julian
!!!COM-rismID: pe30016420
!!!CDT: 1807-~1851
!!!CNT:
!!!OPR: Fantaisie brillante sur la Romance du Saule
!!!OTL: Romanza
!!!OMV: 002
!!!PDT:
!!!AGN:
!!!SMS-siglum: PL-Wnifc
!!!SMS-shelfmark: 6735/n
!!!SMS-shelfwork: 001-002 M
!!!SMS-variant:
!!!SMS-altvar:
!!!NIFC-rismSourceID: 1001157997
!!!NIFC-rismChildID: 1001158000
!!!NIFC-islandoraID: nifc:213460
!!!URL-pdf-islandora: https://repozytorium.nifc.pl/islandora/object/nifc%3A213460/datastream/PDF/view
!!!URL-scan: https://polish.musicsources.pl/pl/lokalizacje/galeria/klocki-introligatorskie/688 @EN{Scan on Polish Music Sources Website} @PL{Skany w portalu Dziedzictwo Muzyki Polskiej w otwartym dostępie}
!!!ONB-nifc: UWAGA: skany 10-13. Części utworu: 1. Introduzione, 2. Romanza. 3. Finale
!!!AIN: 2 piano
!!!key: g
**kern	**dynam	**kern	**dynam
*part2	*part2	*part1	*part1
*staff2	*	*staff1	*
*I"PIANO.	*	*I"PIANO.	*
*I'Pf	*	*I'Pf	*
*Ipiano	*	*Ipiano	*
*ICklav	*	*ICklav	*
*clefF4	*	*clefG2	*
*k[b-e-]	*	*k[b-e-]	*
*g:	*	*g:	*
*M2/4	*	*M2/4	*
!	!	!LO:TX:b:t=ROMANZA	!
!	!	!LO:TX:a:B:t=And&colon;no con expres&colon;	!
8r	.	(8d/	p
=1	=1	=1	=1
!	!	!LO:TX:b:i:t=legato	!LO:DY:a
(16G\LL 16B-	.	8g/L	.
*	*	*	*above
16d\	.	.	.
16F#X\ 16c	.	8a/	<
16d\JJ	.	.	.
16G\LL 16B-	.	8b-/	.
16d\	.	.	.
16A\ 16c	.	8cc/J)	[[
16d\JJ)	.	.	.
=2	=2	=2	=2
*	*	*^	*
!	!	!	!	!LO:DY:a
4G\	.	8..dd^^/L	16B<-/LL	>
.	.	.	16d\	.
.	.	.	16g\	.
.	.	.	16d\JJ	.
.	.	32g/Jkk	.	.
4G\	.	8..g/L	16B-</LL	]
.	.	.	16d</	.
.	.	.	16B-</	.
.	.	.	16d</JJ	.
.	.	32g/Jkk	.	.
=3	=3	=3	=3	=3
2G\	.	8..ee-^^</L	16c</LL	.
.	.	.	16e-\	.
.	.	.	16g\	.
.	.	.	16e-\JJ	.
.	.	32g/Jkk	.	.
.	.	8g/L	16c</LL	.
.	.	.	16e-\	.
.	.	8a/J	16g\	.
.	.	.	16e-\JJ	.
=4	=4	=4	=4	=4
2G\	.	[8b-/L	16B-</LL	.
.	.	.	16d\	.
.	.	32b-/LL]	16g\	.
.	.	32cc/	.	.
.	.	32b-/	16d\JJ	.
.	.	32a/JJJ	.	.
.	.	8b-/	16B-</LL	.
.	.	.	16d\	.
.	.	16.dd/LL	16g\	.
.	.	.	16d\JJ	.
.	.	32dd/JJk	.	.
*	*	*v	*v	*
=5	=5	=5	=5
*^	*	*	*
16G/LL	4En\	.	(8.cc#X^^\L	.
(<16A/	.	.	.	.
16c#X/	.	.	.	.
16A/JJ)	.	.	16cc#\Jk	.
16A/LL	4F#X\	.	8.ccn^^\L	.
(<16cn/	.	.	.	.
16d/	.	.	.	.
16c/JJ)	.	.	16cc\Jk)	.
!LO:LB:g=original	!LO:LB:g=original	!	!LO:LB:g=original	!
=6	=6	=6	=6	=6
(4G/	16G\LL	.	(>4b-/	.
.	16B-\	.	.	.
.	16d\	.	.	.
.	16B-\JJ)	.	.	.
*	*	*	*	*below
.	.	.	(16qqcc/LL	p
.	.	.	16qqb-/	.
.	.	.	16qqa/	.
.	.	.	16qqb-/	.
.	.	.	16qqdd/	.
.	.	.	16qqcc/JJ)	.
4G/	(>16G\LL	.	8.b-/L	.
.	16B-\	.	.	.
.	16d\	.	.	.
.	16B-\JJ)	.	16g/Jk)	.
=7	=7	=7	=7	=7
4C/	(>16C\LL	.	(8.a-X\L	.
.	16E-\	.	.	.
.	16A-X\	.	.	.
.	16c\JJ)	.	16b-\Jk	.
*	*	*	*Xtuplet	*
4C/	(>16C\LL	.	(48cc\LLL	] <
.	.	.	48dd\	.
.	.	.	48cc\	.
.	16E-\	.	48bn\	.
.	.	.	48cc\	.
.	.	.	48dd\JJJ)	f
*	*	*	*	*above
.	16A-\	.	16.ee-\LL	>
.	16c\JJ)	.	.	.
.	.	.	32a-^<\JJk	]
=8	=8	=8	=8	=8
*	*	*	*	*below
(4D/	16D\LL	.	(4g/	p >
.	16G\	.	.	.
.	16B-\	.	.	.
.	16d\JJ)	.	.	.
.	.	.	16qqf#X/LL	]
.	.	.	16qqg/	.
.	.	.	16qqa/	.
.	.	.	16qqg/JJ	.
4D/	(>16D\LL	.	4f#/))	.
.	16F#X\	.	.	.
.	16A\	.	.	.
.	16d\JJ)	.	.	.
=9	=9	=9	=9	=9
16rc	16FF/	.	8fn/L	sf
16F/LL	8F\	.	.	.
!	!	!	!LO:TX:b:t=risoluto	!
.	.	.	(8qqa/	.
16A/ 16e-	.	.	16.g/L)	.
16F/JJ	16F\	.	.	.
.	.	.	(32f/JJk	.
.	.	.	8qqa/)	.
16rcyy	16FF/	.	16.g^^</LL	.
16F/LL	8F\	.	.	.
.	.	.	(32f/K	.
.	.	.	8qqa/)	.
16A/ 16e-	.	.	16.g^^</	.
16F/JJ	16F\	.	.	.
.	.	.	32f/JJk	.
*v	*v	*	*	*
=10	=10	=10	=10
*	*	*^	*
16BB-'\ 16B-	.	(<16.f/LL	4f\	.
16F\LL 16B- 16d	.	.	.	.
.	.	64b-/LL	.	.
.	.	64dd/JJJ)	.	.
16F\ 16B- 16d	.	[8ff^^</J	.	rf
16F\JJ 16B- 16d	.	.	.	>
16EE-'\ 16E-	.	(16ff/LL]	4g\	]]
16E-\LL 16G 16c	.	16ee-/JJ)	.	.
*	*	*tuplet	*	*
!	!	!LO:TUP:b	!	!
16E-\ 16G 16c	.	(<24ee-/LL	.	.
.	.	24dd/	.	.
16E-\JJ 16G 16c	.	.	.	.
.	.	24cc/JJ)	.	.
!LO:LB:g=original	!	!LO:LB:g=original	!LO:LB:g=original	!
=11	=11	=11	=11	=11
*^	*	*	*	*
!	!	!	!LO:TUP:a	!	!
16FF/ 16F	4rEEyy	.	(48dd\LLL	4rcyy	.
.	.	.	48ee-\	.	.
.	.	.	48ff\	.	.
16F\LL 16B- 16d	.	.	48dd\	.	.
.	.	.	48ee-\	.	.
.	.	.	48cc\JJJ)	.	.
16F\ 16B- 16d	.	.	[8b-\	.	.
16F\JJ 16B- 16d	.	.	.	.	.
16FF/ 16F	16rEEyy	.	16b-/LL]	16rcyy	.
16F/LL	8F\L	.	16f/	8.f\	.
16A/ 16c 16e-	.	.	16dd^^/	.	.
16F/JJ	16F\Jk	.	16cc/JJ	.	.
=12	=12	=12	=12	=12	=12
4D/	(>16D\LL	.	16.b-\LL	4b-/	.
.	16F\	.	.	.	.
*	*	*	*Xtuplet	*	*
.	.	.	(96ff\LL	.	.
.	.	.	96bb-\	.	.
.	.	.	96ddd\JJJ	.	.
.	16B-\	.	[8fff^^\J)	.	.
.	16d\JJ)	.	.	.	.
(4E-/	16E-\LL	.	(16fff\LL]	4gg\	.
.	16G\	.	16eee-\JJ)	.	.
*	*	*	*tuplet	*	*
!	!	!	!LO:TUP:a	!	!
.	16c\	.	(24eee-\LL	.	.
.	.	.	24ddd\	.	.
.	16e-\JJ)	.	.	.	.
.	.	.	24ccc\JJ)	.	.
*	*	*	*v	*v	*
=13	=13	=13	=13	=13
*	*^	*	*	*
*	*	*^	*	*	*
(4F/	16F\LL	4ryy	4ryy	.	(64ddd\LLLL	.
.	.	.	.	.	64eee-\	.
.	.	.	.	.	64fff\	.
.	.	.	.	.	64eee-\JJJJ	.
.	16B-\	.	.	.	64ddd\LLLL	.
.	.	.	.	.	64eee-\	.
.	.	.	.	.	64ccc\	.
.	.	.	.	.	64ddd\JJJJ	.
.	16d\	.	.	.	8bb-\)	.
.	16f\JJ)	.	.	.	.	.
4F/	16F\LL	16ryy	16ryy	.	64r	.
.	.	.	.	.	(64ff\LLLL	.
.	.	.	.	.	64gg\	.
.	.	.	.	.	64aa\JJJJ	.
.	16A\	8.A/	8e-/L	.	64bb-\LLLL	.
.	.	.	.	.	64ccc\	.
.	.	.	.	.	64ddd\	.
.	.	.	.	.	64eee-\JJJJ)	.
!	!	!	!	!	!LO:TX:b:i:t=poco ritenuto	!
!	!	!	!	!	!LO:TUP:a	!
.	16e-\	.	.	.	(96ggg\LLLL	.
.	.	.	.	.	96fff\	.
.	.	.	.	.	96aa\JJJJ)	.
.	.	.	.	.	16ddd^^\LL	.
.	16f\JJ	.	16f/Jk	.	.	.
.	.	.	.	.	32ccc\JJk	.
!	!LO:LB:g=original	!	!LO:LB:g=original	!	!LO:LB:g=original	!
*	*v	*v	*v	*	*	*
=14	=14	=14	=14	=14
(4D/	16D\LL	.	(64bb-\LLLL	.
.	.	.	64ff\	.
.	.	.	64gg\	.
.	.	.	64aa\JJJJ	.
.	16F\	.	64bb-\LLLL	.
.	.	.	64ccc\	.
.	.	.	64ddd\	.
.	.	.	64eee-\JJJJ	.
.	16B-\	.	64ff\LLLL	.
*	*	*	*8va	*
.	.	.	64ggg\	.
.	.	.	64aaa\	.
.	.	.	64bbb-\JJJJ	.
.	16d\JJ)	.	64cccc\LLLL	.
.	.	.	64dddd\	.
.	.	.	64eeee-\	.
.	.	.	64eeeen\JJJJ	.
!	!	!	!	!LO:HP:t=cres.---
4E-/	(>16E-\LL	.	64ffff\LLLL	<
.	.	.	64eeee-X\	.
.	.	.	64dddd\	.
.	.	.	64cccc\JJJJ	.
.	16G\	.	64eeee-\LLLL	.
.	.	.	64dddd\	.
.	.	.	64cccc\	.
.	.	.	64bbb-\JJJJ	.
.	16c\	.	64cccc\LLLL	.
.	.	.	64bbb-\	.
.	.	.	64aaa\	.
.	.	.	64ggg\JJJJ	.
.	16e-\JJ)	.	64fff\LLLL	.
.	.	.	64eee-\	.
.	.	.	64ddd\	.
.	.	.	64ccc\JJJJ)	.
*	*	*	*X8va	*
=15	=15	=15	=15	=15
!	!	!	!	!LO:HP:t=decres.---
(4F/	16F\LL	.	64fff\LLLL	>
.	.	.	64eee-\	.
.	.	.	64ddd\	.
.	.	.	64ccc\JJJJ	.
.	16B-\	.	64ddd\LLLL	.
.	.	.	64ccc\	.
.	.	.	64bb-\	.
.	.	.	64aa\JJJJ	.
.	16d\	.	64gg\LLLL	.
.	.	.	64ff\	.
.	.	.	64ee-\	.
.	.	.	64dd\JJJJ	.
.	16f\JJ)	.	64cc/LLLL	.
.	.	.	64b-/	.
.	.	.	64a/	.
.	.	.	64g/JJJJ	.
4F/	(>16F\LL	.	16f\LL	.
!	!	!	!LO:TX:b:i:t=molto expres.	!
.	16A;>\	.	16ffT;\	.
.	.	.	16qqee-/LL	.
.	.	.	16qqff/JJ	.
.	.	.	(8qqff/	.
.	16e-\	.	16.ddd^^\)	.
.	16f\JJ)	.	.	.
.	.	.	32ccc\JJk	.
*v	*v	*	*	*
=16	=16	=16	=16
16B-\ 16d	.	16bb-\	p
8r	.	(16b-\LL 16dd	.
.	.	16a'\JJ) 16ff	.
8r	.	(16g\LL 16b-	.
.	.	16f'\JJ) 16dd	.
8r	.	(16e-/LL 16g	.
.	.	16d'/JJ) 16b-	.
16DD;</ 16D	.	16c;</ 16d 16f#X 16a	.
!LO:PB:g=original	!	!LO:PB:g=original	!
=17||	=17||	=17||	=17||
*^	*	*	*
!	!	!	!LO:TX:b:t=piu animato.	!
!LO:TX:b:t=il basso ben marcato.	!	!	!LO:TX:a:B:t=Brillante.	!
.	(8qqGG/	.	.	.
*	*	*	*^	*
8.G\L	2G/)	.	72raa	8rcyy	.
!	!	!	!LO:TUP:b	!	!
.	.	.	(72B-/LLLL	.	.
.	.	.	72d/	.	.
.	.	.	72g/	.	.
.	.	.	72b-/	.	.
.	.	.	72dd/	.	.
.	.	.	72gg/	.	.
.	.	.	72bb-/	.	.
.	.	.	72ddd/JJJJ)	.	.
.	.	.	16eee-^^/	16eee-/LL	.
16A\Jk	.	.	16raa	16A<^^\JJ	.
8.B-\L	.	.	72raa	8rcyy	.
!	!	!	!LO:TUP:b	!	!
.	.	.	(72d/LLLL	.	.
.	.	.	72g/	.	.
.	.	.	72b-/	.	.
.	.	.	72dd/	.	.
.	.	.	72gg/	.	.
.	.	.	72bb-/	.	.
.	.	.	72ddd/	.	.
.	.	.	72ggg/JJJJ)	.	.
.	.	.	16ggg^^/	16ggg/LL	.
16c\Jk	.	.	16raa	16c<\JJ	.
*v	*v	*	*	*	*
=18	=18	=18	=18	=18
!	!	!LO:TX:b:t=veloce.	!	!
(8qqG/	.	.	.	.
8.d^^\L)	.	72raa	8rc	.
!	!	!LO:TUP:b	!	!
.	.	(<72g/LLLL	.	.
.	.	72b-/	.	.
.	.	72dd/	.	.
.	.	72gg/	.	.
.	.	72bb-/	.	.
*	*	*8va	*	*
.	.	72ddd/	.	.
.	.	72ggg/	.	.
.	.	72bbb-/JJJJ)	.	.
.	.	16dddd^^/	16dddd/LL	.
*	*	*v	*v	*
*	*	*X8va	*
*	*	*^	*
16G\Jk	.	16raa	16G<^^\JJ	.
8.G^^\L	.	72raa	8rcyy	.
!	!	!LO:TUP:b	!	!
.	.	(72B-/LLLL	.	.
.	.	72d/	.	.
.	.	72g/	.	.
.	.	72b-/	.	.
.	.	72dd/	.	.
.	.	72gg/	.	.
.	.	72bb-/	.	.
.	.	72ddd/JJJJ)	.	.
.	.	16ggg^^/	16ggg/LL	.
16G\Jk	.	16raa	16G<^^\JJ	.
!LO:LB:g=original	!	!LO:LB:g=original	!LO:LB:g=original	!
=19	=19	=19	=19	=19
(8qqG/	.	.	.	.
8.e-^^\L)	.	72raa	8rc	.
.	.	(72g/LLLL	.	.
.	.	72cc/	.	.
.	.	72ee-/	.	.
.	.	72gg/	.	.
*	*	*8va	*	*
.	.	72ccc/	.	.
.	.	72eee-/	.	.
.	.	72ggg/	.	.
.	.	72cccc/JJJJ)	.	.
.	.	16eeee-^^/	16eeee-/LL	.
*	*	*v	*v	*
*	*	*X8va	*
*	*	*^	*
16G\Jk	.	16raa	16G<^^\JJ	.
8.G^^\L	.	72raa	8rcyy	.
.	.	(72c/LLLL	.	.
.	.	72e-/	.	.
.	.	72g/	.	.
.	.	72cc/	.	.
.	.	72ee-/	.	.
.	.	72gg/	.	.
.	.	72ccc/	.	.
.	.	72eee-/JJJJ)	.	.
.	.	16ggg^^/	16ggg/LL	.
16A\Jk	.	16raa	16A<^^\JJ	.
=20	=20	=20	=20	=20
[8.B-^^\L	.	72raa	8rc	.
*	*	*Xtuplet	*	*
.	.	(72d/LLLL	.	.
.	.	72g/	.	.
.	.	72b-/	.	.
.	.	72dd/	.	.
.	.	72gg/	.	.
.	.	72bb-/	.	.
*	*	*8va	*	*
.	.	72ddd/	.	.
.	.	72ggg/JJJJ)	.	.
.	.	16bbb-^^/	16bbb-\LL	.
*	*	*v	*v	*
*	*	*X8va	*
*	*	*^	*
64B-\LLL]	.	16raa	64B<-\LL	.
64c\	.	.	64c<\	.
64B-\	.	.	64B-<\	.
64A\JJJJ	.	.	64A<\JJJJ	.
8.B-^^\L	.	80raa	8rcyy	.
.	.	(80d/LLLL	.	.
.	.	80g/	.	.
.	.	80b-/	.	.
.	.	80dd/	.	.
.	.	80gg/	.	.
.	.	80bb-/	.	.
*	*	*8va	*	*
.	.	80ddd/	.	.
.	.	80ggg/	.	.
.	.	80bbb-/JJJJ)	.	.
.	.	16dddd^^/	16dddd/LL	.
*	*	*v	*v	*
*	*	*X8va	*
*	*	*^	*
16d\Jk	.	16raa	16d<^^\JJ	.
!LO:LB:g=original	!	!LO:LB:g=original	!LO:LB:g=original	!
=21	=21	=21	=21	=21
*^	*	*	*	*
.	[16qqAA/LL	.	.	.	.
.	[16qqEn/JJ	.	.	.	.
8.c#X^^/L	4AA\] 4E]	.	72raa	8rc	.
.	.	.	(72en/LLLL	.	.
.	.	.	72g/	.	.
.	.	.	72cc#X/	.	.
.	.	.	72een/	.	.
.	.	.	72gg/	.	.
*	*	*	*8va	*	*
.	.	.	72ccc#X/	.	.
.	.	.	72eeen/	.	.
.	.	.	72ggg/JJJJ)	.	.
.	.	.	16cccc#X^^/	16cccc#/LL	.
*	*	*	*v	*v	*
*	*	*	*X8va	*
*	*	*	*^	*
16c#/Jk	.	.	16raa	16c<^^\JJ	.
.	[16qqD/LL	.	.	.	.
.	[16qqA/JJ	.	.	.	.
8.cn^^/L	4D\] 4A]	.	72raa	8rcyy	.
.	.	.	(72d/LLLL	.	.
.	.	.	72f#X/	.	.
.	.	.	72ccn/	.	.
.	.	.	72dd/	.	.
.	.	.	72ff/	.	.
.	.	.	72cccn/	.	.
*	*	*	*8va	*	*
.	.	.	72ddd/	.	.
.	.	.	72fff/JJJJ)	.	.
.	.	.	16ccccn^^/	16cccc/LL	.
*	*	*	*v	*v	*
*	*	*	*X8va	*
*	*	*	*^	*
16c/Jk	.	.	16raa	16c<^^\JJ	.
=22	=22	=22	=22	=22	=22
.	[16qqGG/LL	.	.	.	.
.	[16qqD/JJ	.	.	.	.
8.Bn^^/L	4GG\] 4D]	.	80raa	8rc	.
.	.	.	80d/LLLL	.	.
.	.	.	80g/	.	.
.	.	.	80bn/	.	.
.	.	.	80dd/	.	.
.	.	.	80gg/	.	.
.	.	.	80bbn/	.	.
*	*	*	*8va	*	*
.	.	.	80ddd/	.	.
.	.	.	80ggg/	.	.
.	.	.	80bbbn/JJJJ	.	.
.	.	.	16dddd^^/	16dddd/LL	.
*	*	*	*v	*v	*
*	*	*	*X8va	*
*	*	*	*^	*
16B/Jk	.	.	16raa	16B-<\JJ	.
.	[16qqGG/LL	.	.	.	.
.	[16qqD/JJ	.	.	.	.
8.B-X/L	4GG\] 4D]	.	72raa	8rcyy	.
.	.	.	72d/LLLL	.	.
.	.	.	72g/	.	.
.	.	.	72b-X/	.	.
.	.	.	72dd/	.	.
.	.	.	72gg/	.	.
.	.	.	72bb-X/	.	.
*	*	*	*8va	*	*
.	.	.	72ddd/	.	.
.	.	.	72ggg/JJJJ	.	.
.	.	.	16bbb-X^^/	16bbb-/LL	.
*	*	*	*v	*v	*
*	*	*	*X8va	*
*	*	*	*^	*
16B-/Jk	.	.	16raa	16B-<\JJ	.
!LO:LB:g=original	!	!	!LO:LB:g=original	!LO:LB:g=original	!
*v	*v	*	*	*	*
*	*	*v	*v	*
=23	=23	=23	=23
(2AA\ (2C (2E- (2A	.	64AA-X</LLLL)	.
.	.	64C</)	.
.	.	64E-</)	.
.	.	64A-X</JJJJ)	.
.	.	(64c/LLLL	p
.	.	64e-/	.
.	.	64a-X/	.
.	.	64cc/JJJJ	.
.	.	64ee-\LLLL	.
.	.	64aa-X\	.
.	.	64ccc\	.
.	.	64eee-\JJJJ	.
*	*	*8va	*
.	.	64aaa-X\LLLL	<
.	.	64cccc\	.
.	.	64dddd\	.
.	.	64eeee-\JJJJ	.
.	.	64dddd\LLLL	.
.	.	64eeee-\	.
.	.	64dddd\	.
.	.	64eeee-\JJJJ	.
.	.	64dddd\LLLL	[
.	.	64eeee-\	.
.	.	64dddd\	>
.	.	64eeee-\JJJJ	.
.	.	64dddd\LLLL	.
.	.	64eeee-\	.
.	.	64dddd\	.
.	.	64eeee-\JJJJ	.
.	.	64dddd\LLLL	.
.	.	64cccc\	.
.	.	64bbb-\	.
.	.	64aaan\JJJJ)	]]
!LO:LB:g=original	!	!LO:LB:g=original	!
=24	=24	=24	=24
(64DD/LLLL	.	(4gggT\	[
64GG/	.	.	<
64D/	.	.	.
64G/JJJJ	.	.	.
64B-\LLLL	.	.	.
64d\	.	.	.
*clefG2	*	*	*
64g\	.	.	.
64b-\JJJJ	.	.	.
64dd\LLLL	.	.	.
64gg\	.	.	.
64bb-\	.	.	.
64ddd\JJJJ	.	.	.
64ccc#X\LLLL	.	.	.
64ddd\	.	.	.
64eee-\	.	.	.
64ddd\JJJJ	.	.	[
.	.	16qqfff#X/LL	>
.	.	16qqggg/	.
.	.	16qqaaa/	.
.	.	16qqggg/JJ	.
64aa\LLLL	.	8fff#X\)	]]
64ff#X\	.	.	.
64dd\	.	.	.
64a\JJJJ	.	.	.
64f/LLLL	.	.	.
64d/	.	.	.
*clefF4	*	*	*
64A/	.	.	.
64F/JJJJ	.	.	.
*	*	*X8va	*
64D/LLLL	.	8r	.
64AA/	.	.	.
64FF/	.	.	.
64AA/JJJJ	.	.	.
64DD/LLLL	.	.	.
64FF/	.	.	.
64AA/	.	.	.
64D/JJJJ)	.	.	.
!LO:LB:g=original	!	!LO:LB:g=original	!
=25	=25	=25	=25
((64FF/LLLL	.	32r	.
[64F/J)	.	.	.
[32FF/JJJ) 32F_	.	(64A/LLLL	.
.	.	64c/JJJJ	.
16FF/] 16F]	.	64e-/LLLL	.
.	.	64f/	.
.	.	16qqa/	.
.	.	64g/	.
.	.	64f/JJJJ)	.
16F\LL 16A 16e- 16f	.	64r	.
.	.	(64ff/LLLL	.
.	.	8qqaa/	.
.	.	64gg/	.
.	.	64ff/JJJJ)	.
16F\JJ 16A 16e- 16f	.	64r	.
.	.	64fff\LLLL	.
.	.	16qqaaa/	.
.	.	64ggg\	.
.	.	64fff\JJJJ	.
8F\L 8B- 8d 8f	.	64r	.
*	*	*8va	*
.	.	(64fff/LLLL	.
.	.	64bbb-/	.
.	.	64dddd/JJJJ	.
.	.	64ffff/LLLL	.
.	.	64fff/	.
.	.	64ffff/	.
.	.	64fff/JJJJ	.
8E-\J 8G 8c 8e-	.	64ffff/LLLL	.
.	.	64ggg/	.
.	.	64eeee-/	.
.	.	64ggg/JJJJ	.
.	.	64dddd/LLLL	.
.	.	64ggg/	.
.	.	64cccc/	.
.	.	64ggg/JJJJ)	.
!LO:LB:g=original	!	!LO:LB:g=original	!
=26	=26	=26	=26
4F\ 4B- 4d	.	(64eeee-\LLLL	.
.	.	64dddd\	.
.	.	64cccc\	.
.	.	64bbb-\JJJJ	.
.	.	64aaa\LLLL	.
.	.	64ggg\	.
.	.	64fff\	.
.	.	64eee-\JJJJ	.
*	*	*X8va	*
.	.	64ddd\LLLL	.
.	.	64ccc\	.
.	.	64bb-\	.
.	.	64aa\JJJJ	.
.	.	64gg\LLLL	.
.	.	64ff\	.
.	.	64ee-\	.
.	.	64dd\JJJJ	.
8FF\L 8F	.	64cc\LLLL	.
.	.	64dd\	.
.	.	64ee-\	.
.	.	64dd\JJJJ	.
.	.	64ff\LLLL	.
.	.	64ee-\	.
.	.	64gg\	.
.	.	64ff\JJJJ	.
8F:\J 8A: 8c: 8e-:	.	64aa\LLLL	.
!	!	!LO:TX:b:t=poco. rall.	!
.	.	64gg\	.
.	.	64ff\	.
.	.	64ee-\JJJJ	.
!	!	!LO:TUP:a:problem:klamra łukowa	!
.	.	96dd\LLLL	.
.	.	96ff\	.
.	.	96ee-\	.
!	!	!LO:TX:b:t=express.	!
!	!	!LO:TUP:a:problem:klamra łukowa	!
.	.	96a\	.
.	.	96dd\	.
.	.	96cc\JJJJ)	.
=27	=27	=27	=27
16B-`\ 16d	.	16b-`\	.
8r	.	(64b-\LLLL	.
.	.	64dd\	.
.	.	64b-\	.
.	.	64dd\JJ	.
.	.	16a'\JJ) 16ff	.
8r	.	(64g\LLLL	.
.	.	64b-\	.
.	.	64g\	.
.	.	64b-\JJ	.
.	.	16f'\JJ) 16dd	.
8r	.	(64e-/LLLL	.
.	.	64g/	.
.	.	64e-/	.
.	.	64g/JJ	.
.	.	16d'/JJ) 16b-	.
16DD;</ 16D	.	16c;</ 16d 16f#X 16a	.
!LO:LB:g=original	!	!LO:LB:g=original	!
=28||	=28||	=28||	=28||
*M4/4	*	*M4/4	*
*met(c)	*	*met(c)	*
!	!	!LO:TX:a:B:t=Lento cantabile con expressione	!
16G`\LL 16B- 16d	.	(>4g/	p
16D\	.	.	.
16DD/	.	.	.
16D\JJ	.	.	.
.	.	(16qqd/LL	.
.	.	16qqe-/	.
.	.	16qqf#X/	.
.	.	16qqg/JJ	.
16F#X`\LL 16A 16c 16d	.	4a/)	.
16D\	.	.	.
16DD/	.	.	.
!	!	!	!LO:HP:t=cres.
16D\JJ	.	.	.
.	.	(16qqd/LL	<
.	.	16qqe-/	.
.	.	16qqf#/	.
.	.	16qqg/	.
.	.	16qqa/JJ	.
16G`\LL 16B- 16d	.	4b-/)	.
16D\	.	.	.
16DD/	.	.	.
16D\JJ	.	.	.
.	.	(16qqd/LL	<
.	.	16qqe-/	.
.	.	16qqf#/	.
.	.	16qqg/	.
.	.	16qqa/	.
.	.	16qqb-/JJ	.
16A`\LL 16c 16d	.	4cc/)	[[
16D\	.	.	.
16DD/	.	.	.
16D\JJ	.	.	.
.	.	(16qqd/LL	<
.	.	16qqe-/	.
.	.	16qqf/	.
.	.	16qqg/	.
.	.	16qqa/	.
.	.	16qqb-/	.
.	.	16qqcc/JJ	[[
=29	=29	=29	=29
16G'>\LL 16B- 16d	.	2dd^^/))	.
16B->'>\ 16d> 16g>	.	.	.
16d>'>\ 16g> 16b->	.	.	.
16B->'>\JJ 16d> 16g>	.	.	.
16G'>\LL 16B- 16d	.	.	.
16D'>\ 16G 16B-	.	.	.
16BB-'>\ 16D 16G	.	.	.
16GG'>\JJ 16BB- 16D	.	.	.
*	*	*tuplet	*
.	.	(16qqdd/LL	.
.	.	16qqee-/	.
.	.	16qqff#X/	.
.	.	16qqgg/	.
.	.	16qqaa/	.
.	.	16qqbb-/JJ	.
.	.	16qqccc/LL	.
!	!	!LO:TX:b:t=delicatam&colon;	!
.	.	16qqddd/	.
.	.	16qqccc/	.
.	.	16qqbb-/	.
.	.	16qqaa/	.
.	.	16qqgg/JJ	.
.	.	16qqffn/LL	.
.	.	16qqee-/	.
.	.	16qqdd/	.
.	.	16qqcc/	.
.	.	16qqb-/JJ)	.
.	.	16qqa/	.
16BB-'\LL 16D 16G	.	4g/	.
16D'\ 16G 16B-	.	.	.
16G'\ 16B- 16d	.	.	.
16D'\JJ 16G 16B-	.	.	.
16BB-'/LL 16D 16G	.	4r	.
16GG'/ 16BB- 16D	.	.	.
16DD'/ 16GG 16BB-	.	.	.
16BBB-'/JJ 16DD 16GG	.	.	.
!LO:LB:g=original	!	!	!
.	.	(16qqg/LL	.
.	.	16qqa/	.
.	.	16qqb-/	.
.	.	16qqcc/	.
.	.	16qqdd/JJ)	.
=30	=30	=30	=30
!	!	!LO:LB:g=original	!
16C'\LL 16c	.	8..ee-^^/L	.
16G'\ 16c> 16e->	.	.	.
16c>'>\ 16e-> 16g>	.	.	.
16G'\JJ 16c> 16e->	.	.	.
.	.	32g/Jkk	.
16C'\LL 16c	.	4g/	[
16G'\ 16c> 16e->	.	.	.
16c>'>\ 16e-> 16g>	.	.	.
16G'\JJ 16c> 16e->	.	.	.
.	.	(16qqgg/LL	p
.	.	16qqaa/	.
.	.	16qqbb-/	.
.	.	16qqccc/	.
.	.	16qqddd/JJ	.
16C'\LL 16c	.	16.eee-/LL)	.
16G'\ 16c> 16e->	.	.	.
.	.	32gg/JJk	.
16e->'\ 16g>	.	16gg/	.
16G'\JJ 16c> 16e->	.	16r	.
.	.	(16qqggg/LL	pp
.	.	16qqaaa/	.
.	.	16qqbbb-/	.
.	.	16qqcccc/	.
.	.	16qqdddd'/JJ	.
*	*	*8va	*
16C'\LL 16c	.	8eeee-/)	.
16G'\ 16c> 16e->	.	.	.
*	*	*X8va	*
16c>'\ 16e-> 16g>	.	8r	.
16G'\JJ 16c> 16e->	.	.	.
.	.	(<16qqg/LL	f
.	.	16qqa/	.
.	.	16qqb-/	.
.	.	16qqcc/	.
.	.	16qqcc#X/JJ	.
=31	=31	=31	=31
16GG'\LL 16G	.	8..dd/L)	.
16G'\ 16B- 16d	.	.	.
16B->'\ 16d> 16g>	.	.	.
16G'\JJ 16B- 16d	.	.	.
.	.	32g/Jkk	.
16DD'\LL 16D	.	4g/	.
16D'\ 16G 16B-	.	.	.
16G'\ 16B- 16d	.	.	.
16D'\JJ 16G 16B-	.	.	.
.	.	(16qqgg/LL	p
.	.	16qqaa/	.
.	.	16qqbb-/	.
.	.	16qqccc/	.
.	.	16qqccc#X/JJ	.
16BBB-'/LL 16BB-	.	16.ddd\LL)	.
16BB-'/ 16D 16G	.	.	.
.	.	32gg\JJk	.
16D'/ 16G 16B-	.	16gg\	.
*	*	*8va	*
16BB-'/JJ 16D 16G	.	16r	.
.	.	(16qqggg/LL	pp
.	.	16qqaaa/	.
.	.	16qqbbb-/	.
.	.	16qqcccc/	.
.	.	16qqcccc#X/JJ	.
16GGG'/LL 16GG	.	8dddd`\)	.
16GG'/ 16BB- 16D	.	.	.
*	*	*X8va	*
16BB-'/ 16D 16G	.	8r	.
16GG'/JJ 16BB- 16D	.	.	.
!LO:LB:g=original	!	!	!LO:LB:g=original
=32	=32	=32	=32
*	*	*^	*
32r	.	4.en/ 4.cc#X	32rc	f <
!	!	!LO:TX:b:t=risoluto	!	!
(32AAA'/LLL 32AA	.	.	32g'>\LLL 32a	.
32GGG#X'/ 32GG#X	.	.	32g'>\ 32a	.
32AAA'/JJJ 32AA	.	.	32g'>\JJJ 32a	.
32BBB-'/LLL 32BB-	.	.	32g'>\LLL 32a	.
32BBBn'/ 32BBn	.	.	32g'>\ 32a	.
32CC'/ 32C	.	.	32g'>\ 32a	.
32CC#X'/JJJ 32C#X	.	.	32g'>\JJJ 32a	.
32DD'/LLL 32D	.	.	32g'>\LLL 32a	.
32EE-'/ 32E-	.	.	32g'>\ 32a	.
32EEn'/ 32En	.	.	32g'>\ 32a	.
32FF'/JJJ 32F	.	.	32g'>\JJJ 32a	.
32FF#X'/LLL 32F#X	.	8e/LLL 8cc#	32r	.
32GGn'/ 32G	.	.	32g'>\LLL 32a	.
32GG#X'/ 32G#X	.	.	32g'>\ 32a	.
32AA'/JJJ) 32A	.	.	32g'>\JJJ 32a	.
32r	.	4.d/ 4.ccn	32d\LLL	[
(32DD'/LLL 32D	.	.	32f#X'>\ 32a	.
32CC#X'/ 32C#X	<	.	32f#'>\ 32a	.
32DD'/JJJ 32D	.	.	32f#'>\JJJ 32a	.
32EE-X'/LLL 32E-X	.	.	32f#'>\LLL 32a	.
32EEn'/ 32En	.	.	32f#'>\ 32a	.
32FFn'/ 32Fn	.	.	32f#'>\ 32a	.
32FF#X'/JJJ) 32F#X	.	.	32f#'>\JJJ 32a	.
(32GGn'\LLL 32Gn	.	.	32f#'>\LLL 32a	.
32GG#X'\ 32G#X	.	.	32f#'>\ 32a	.
32AA'\ 32A	.	.	32f#'>\ 32a	.
32BB-X'\JJJ 32B-	.	.	32f#'>\JJJ 32a	.
32BBn'\LLL 32Bn	.	8d/ 8cc	32d\LLL	.
32Cn'\ 32c	.	.	32f#'>\ 32a	.
32C#X'\ 32c#X	.	.	32f#'>\ 32a	.
32D'\JJJ) 32d	[[	.	32f#'>\JJJ 32a	.
!LO:LB:g=original	!	!	!LO:LB:g=original	!LO:LB:g=original
=33	=33	=33	=33	=33
32r	.	4b-/	32b-\LLL	p
32G'\LLL 32B-	.	.	32d'>\ 32g	.
32G'\ 32B-	.	.	32d'>\ 32g	.
32G'\JJJ 32B-	.	.	32d'>\JJJ 32g	.
32G'\LLL 32B-	.	.	32d'>\LLL 32g	.
32G'\ 32B-	.	.	32d'>\ 32g	.
32G'\ 32B-	.	.	32d'>\ 32g	.
32G'\JJJ 32B-	.	.	32d'>\JJJ 32g	.
32r	.	32cc/LLL	32rc	.
32G'\LLL 32B-	.	32b-/	32d\LLL 32g	.
32G'\ 32B-	.	32a/	32d\ 32g	.
32G'\JJJ 32B-	.	32b-/JJJ	32d\JJJ 32g	.
32G'\LLL 32B-	.	32cc/LLL	32d\LLL 32g	.
32G'\ 32B-	.	32b-/	32d\ 32g	.
32G'\ 32B-	.	32dd/	32d\ 32g	.
32G'\JJJ 32B-	.	32cc/JJJ	32d\JJJ 32g	.
32r	.	4b-/	32b-\LLL	.
32G'\LLL 32B-	.	.	32d'>\ 32g	.
32G'\ 32B-	.	.	32d'>\ 32g	.
32G'\JJJ 32B-	.	.	32d'>\JJJ 32g	.
32G'\LLL 32B-	.	.	32d'>\LLL 32g	.
32G'\ 32B-	.	.	32d'>\ 32g	.
32G'\ 32B-	.	.	32d'>\ 32g	.
32G'\JJJ 32B-	.	.	32d'>\JJJ 32g	.
32r	.	4g/	32g\LLL	.
32GG'\LLL 32G	.	.	32B-'>\ 32d	.
32GG'\ 32G	.	.	32B-'>\ 32d	.
32GG'\JJJ 32G	.	.	32B-'>\JJJ 32d	.
32GG'\LLL 32G	.	.	32B-'>\LLL 32d	.
32GG'\ 32G	.	.	32B-'>\ 32d	.
32GG'\ 32G	.	.	32B-'>\ 32d	.
32GG'\JJJ 32G	.	.	32B-'>\JJJ 32d	.
!LO:LB:g=original	!	!	!LO:LB:g=original	!LO:LB:g=original
*	*	*v	*v	*
=34	=34	=34	=34
*^	*	*	*
(4C/	16C\LL	.	(8a-X\L	p
.	16E-\	.	.	.
*	*	*	*Xtuplet	*
.	16A-X\	.	(48a-\LL)	.
.	.	.	(48b-\	.
.	.	.	48cc\	.
.	16c\JJ)	.	(48dd\)	.
.	.	.	48ee-\	.
.	.	.	48ff\JJJ)	.
(4C/	16C\LL	.	(48gg\LLL	<
.	.	.	48aa\	.
.	.	.	48bb-\)	.
.	16E-\	.	(48ccc\	.
.	.	.	48ddd\	.
.	.	.	48eee-\JJJ)	.
.	16A-\	.	(48ff\LLL	.
.	.	.	48gg\	.
.	.	.	48aa\)	.
.	16c\JJ)	.	(48bb-\	.
.	.	.	48ccc\	.
.	.	.	48ddd\JJJ)	.
4C/	(>16C\LL	.	(48eee-\LLL	[ >
.	.	.	48fff\	.
.	.	.	48eee-\)	.
.	16E-\	.	(48ddd\	.
.	.	.	48ccc\	.
.	.	.	48bb-\JJJ)	.
.	16A-\	.	(48aa\LLL	.
.	.	.	48gg\	.
.	.	.	48ff\)	.
.	16c\JJ)	.	(48ee-\	.
.	.	.	48dd\	.
.	.	.	48cc\JJJ)	.
(4C/	16C\LL	.	(48bb-\LLL	]
.	.	.	48aa\	.
.	.	.	48gg\)	.
.	16E-\	.	(48ff\	.
.	.	.	48ee-\	.
.	.	.	48dd\JJJ)	.
!	!	!	!LO:TX:b:t=rit.	!
.	16A-\	.	(48cc\LLL	.
.	.	.	48dd\	.
.	.	.	48ee-\)	.
.	16c\JJ)	.	64ff\L	.
.	.	.	64ee-\	.
.	.	.	64cc\	.
.	.	.	64a#X\JJJJ)	.
=35	=35	=35	=35	=35
(4D/	16D\LL	.	2gT/	<
.	16G\	.	.	.
.	16B-\	.	.	.
.	16d\JJ)	.	.	.
4rcyy	(16E-\LL	.	.	.
.	16G\	.	.	.
.	16A\	.	.	.
.	16c#X\JJ)	.	.	.
.	.	.	16qqf#X/LL	[ >
.	.	.	16qqa/	.
.	.	.	16qqg/JJ	.
4D/	(>16D\LL	.	4f#/	.
.	16F#X\	.	.	.
.	16A\	.	.	.
.	16d\JJ	.	.	.
4rcyy	16D\LL	.	4r	]
.	16d\	.	.	.
.	16DD/	.	.	.
.	16D\JJ)	.	.	.
!LO:PB:g=original	!LO:PB:g=original	!	!LO:PB:g=original	!
*v	*v	*	*	*
=36	=36	=36	=36
*	*	*^	*
32r	.	[8f/L	32rcyy	f
32FFF'/LLL 32FF	.	.	32A'>\LLL 32c 32e-	.
32AAA'/ 32AA	.	.	32A'>\ 32c 32e-	.
32CC'/JJJ 32C	.	.	32A'>\JJJ 32c 32e-	.
8FF'/ 8F	.	32f/LL]	16A\ 16c 16e-	.
.	.	(<32f/	.	.
.	.	8qqa/	.	.
.	.	32g/	16rc	.
.	.	32f/JJJ	.	.
16FF'/ 16F	.	64f/LLLL	4rcyy	p
.	.	64g/	.	.
.	.	64a/	.	.
.	.	64b-/JJJJ	.	.
(16F'\LL 16A 16c 16e-	.	64cc/LLLL	.	.
.	.	64dd/	.	.
.	.	64ee-/	.	.
.	.	64een/JJJJ)	.	.
!	!	!	!	!LO:HP:t=cres.
16F'\ 16A 16c 16e-	.	(64ff\LLLL	.	<
.	.	64gg\	.	.
.	.	64aa\	.	.
.	.	64bb-\JJJJ	.	.
16F'\JJ 16A 16c 16e-	.	64ccc\LLLL	.	.
.	.	64ddd\	.	.
.	.	64eee-\	.	.
.	.	64eeen\JJJJ)	.	.
!	!	!	!	!LO:HP:t=decres.
16F'\LL 16A 16c 16e-	.	32fff'\LLL	2rcyy	>
.	.	32eee-X'\	.	.
16F'\ 16A 16c 16e-	.	32ccc'\	.	.
.	.	32aa'\JJJ	.	.
16F'\ 16A 16c 16e-	.	32ff'\LLL	.	.
.	.	32ee-X'\	.	.
16F'\JJ 16A 16c 16e-	.	32cc'\	.	.
.	.	32a'\JJJ	.	.
16F'\LL 16A 16c 16e-	.	(32f/LLL	.	.
.	.	32f/	.	.
.	.	16qqa/	.	.
16F'\ 16A 16c 16e-	.	32g/	.	.
.	.	32f/JJJ)	.	.
16F'\ 16A 16c 16e-	.	32ff\LLL	.	.
.	.	32ff\	.	.
.	.	16qqaa/	.	.
16F'\JJ) 16A 16c 16e-	.	32gg\	.	.
.	.	32ff\JJJ	.	.
!LO:LB:g=original	!	!LO:LB:g=original	!LO:LB:g=original	!
=37	=37	=37	=37	=37
32r	.	8ff/L	32ff\LLL	rfz
32BBB-'^\LLL 32BB-	.	.	32f'\ 32b- 32dd	.
32DD'^\ 32D	.	.	32f'\ 32b- 32dd	.
32FF'^\J 32F	.	.	32f'\JJJ 32b- 32dd	.
16BB-'^\ 16B-	.	32b-'</LL 32dd	16f\	.
.	.	32f^</ 32ff	.	.
16F'\JJ 16B- 16d	.	32b-^</ 32bb-	16rc	.
.	.	32dd^</JJJ 32ddd	.	.
(16F'\LL 16B- 16d	.	32ff^\LLL 32fff	4rcyy	.
!	!	!LO:TX:b:t=legg.	!	!
.	.	(64gg\L	.	.
.	.	64aa\JJJJ	.	.
16F'\ 16B- 16d	.	64bb-\LLLL	.	.
.	.	64ccc\	.	.
.	.	64ddd\	.	.
.	.	64eee-\JJJJ	.	.
16F'\ 16B- 16d	.	16fff'\)	.	.
16F'\JJ) 16B- 16d	.	16raa	.	.
32r	.	8ff/L	32ff\LLL	f
32CC'^\LLL 32C	.	.	32g'\ 32cc 32ee-	.
32EE-'^\ 32E-	.	.	32g'\ 32cc 32ee-	.
32GG'^\J 32G	.	.	32g'\JJJ 32cc 32ee-	.
16C'^\ 16c	.	32ee-/LL	16g\ 16cc	.
.	.	32g^</ 32gg	.	.
(16G'\JJ 16c 16e-	.	32cc^</ 32ccc	16rcyy	.
.	.	32dd^</JJJ 32ddd	.	.
16G'\LL 16c 16e-	.	32ee-^\LLL 32eee-	4rcyy	.
.	.	(64ff\L	.	.
.	.	64gg\JJJJ	.	.
!	!	!LO:TX:b:t=legg.	!	!
16G'\ 16c 16e-	.	64aa\LLLL	.	.
.	.	64bbn\	.	.
.	.	64ccc\	.	.
.	.	64ddd\JJJJ	.	.
16G'\ 16c 16e-	.	16eee-'\)	.	.
16G'\JJ) 16c 16e-	.	16raa	.	.
!LO:LB:g=original	!	!LO:LB:g=original	!LO:LB:g=original	!
=38	=38	=38	=38	=38
32r	.	[4ee-/	16rc	.
!LO:TX:b:t=pesante.	!	!	!	!
(32FF/LLL 32F	.	.	.	.
32EEn/ 32En	.	.	16f'\LL 16b- 16dd	.
32FF/JJJ 32F	.	.	.	.
32GG/LLL 32G	.	.	16f'\ 16b- 16dd	.
32FF/ 32F	.	.	.	.
32EE/ 32E	.	.	16f'\JJ 16b- 16dd	.
32FF/JJJ) 32F	.	.	.	.
16FF'/ 16F	.	32ee-/LLL]	32rc	.
.	.	32dd/	32f\LLL 32b-	p
16F'\LL 16B- 16d	.	32cc#X/	32f\ 32b-	.
.	.	32dd/JJJ	32f\JJJ 32b-	.
16F'\ 16B- 16d	.	32ee-/LLL	32f\LLL 32b-	.
.	.	32dd/	32f\ 32b-	.
16F'\JJ 16B- 16d	.	32gg/	32f\ 32b-	.
.	.	32ff/JJJ	32f\JJJ 32b-	.
32r	.	[4ff/	16rc	.
(32FF/LLL 32F	f	.	.	.
32EEn/ 32En	.	.	16f'\LL 16a 16ccn	.
32FF/JJJ 32F	.	.	.	.
32GG/LLL 32G	.	.	16f'\ 16a 16cc	.
32FF/ 32F	.	.	.	.
32EE/ 32E	.	.	16f'\JJ 16a 16cc	.
32FF/JJJ) 32F	.	.	.	.
16FF/ 16F	.	32ff/LLL]	4f\ 4a 4cc	.
.	.	32een/	.	.
!	!	!LO:TX:b:t=poco rit.	!	!
16F'\LL 16A 16c 16e-X	.	32gg/	.	.
.	.	32ff/JJJ	.	.
16F'\ 16A 16c 16e-	.	32ee-X/LLL	.	.
.	.	32a/	.	.
16F'\JJ 16A 16c 16e-	.	32dd/	.	.
.	.	32cc/JJJ	.	.
!LO:LB:g=original	!	!LO:LB:g=original	!LO:LB:g=original	!
*	*	*v	*v	*
=39	=39	=39	=39
(32D\LLL	.	(64b-\LLLL	mf
.	.	64a\	.
32F\	.	64cc\	.
.	.	64b-\JJJJ	.
32B-\	.	64dd\LLLL	.
.	.	64cc\	.
32d\JJJ)	.	64ee-\	.
.	.	64dd\JJJ	.
(32D\LLL	.	8ff'\J)	.
32F\	.	.	.
32B-\	.	.	.
32d\JJJ)	.	.	.
(32D\LLL	.	(64bb-\LLLL	pp
.	.	64aa\	.
32F\	.	64ccc\	.
.	.	64bb-\JJJJ	.
32B-\	.	64ddd\LLLL	.
.	.	64ccc\	.
32d\JJJ)	.	64eee-\	.
.	.	64ddd\JJJ	.
(32D\LLL	.	8fff'\J)	.
32F\	.	.	.
32B-\	.	.	.
32d\JJJ)	.	.	.
(32E-\LLL	.	(64cc\LLLL	mf
.	.	64bn\	.
32G\	.	64dd\	.
.	.	64cc\JJJJ	.
32c\	.	64ee-\LLLL	.
.	.	64dd\	.
32e-\JJJ)	.	64ff\	.
.	.	64ee-\JJJ	.
(32E-\LLL	.	8gg'\J)	.
32G\	.	.	.
32c\	.	.	.
32e-\JJJ)	.	.	.
(32E-\LLL	.	(64ccc\LLLL	pp
.	.	64bbn\	.
32G\	.	64ddd\	.
.	.	64ccc\JJJJ	.
32c\	.	64eee-\LLLL	.
.	.	64ddd\	.
32e-\JJJ)	.	64fff\	.
.	.	64eee-\JJJ	.
(32E-\LLL	.	8ggg'\J)	.
32G\	.	.	.
32c\	.	.	.
32e-\JJJ)	.	.	.
!LO:LB:g=original	!	!LO:LB:g=original	!
=40	=40	=40	=40
(32F\LLL	.	(64ddd\LLLL	.
.	.	64eee-\	.
32B-\	.	64fff\	.
.	.	64eee-\JJJJ	.
32d\	.	64ddd\LLLL	.
.	.	64eee-\	.
32f\JJJ)	.	64ccc\	.
.	.	64ddd\JJJ	.
(32F\LLL	.	8bb-'\J)	.
32B-\	.	.	.
32d\	.	.	.
32f\JJJ)	.	.	.
(32F\LLL	.	(64dd\LLLL	.
.	.	64ee-\	.
32B-\	.	64ff\	.
.	.	64ee-\JJJJ	.
32d\	.	64dd\LLLL	.
.	.	64ee-\	.
32f\JJJ)	.	64cc\	.
.	.	64dd\JJJ	.
(32F\LLL	.	8b-'\J)	.
32B-\	.	.	.
32d\	.	.	.
32f\JJJ)	.	.	.
(32F\LLL	.	(64ff\LLLL	<
.	.	64een\	.
32A\	.	64gg\	.
.	.	64ff\JJJJ	.
32e-\	.	64aa\LLLL	.
.	.	64gg\	.
32f\JJJ)	.	64bb-\	.
.	.	64aa\JJJJ	.
(32F\LLL	.	64ccc\LLLL	.
.	.	64bb-\	.
32A\	.	64ddd\	.
.	.	64ccc\JJJJ	.
32e-\	.	64eee-\LLLL	.
.	.	64ddd\	.
32f\JJJ)	.	64fff\	.
.	.	64eee-\JJJJ	.
(32F\LLL	.	64ggg\LLLL	[ >
.	.	64fff\	.
32A\	.	64eee-\	.
.	.	64ddd\JJJJ	.
32e-\	.	64ccc\LLLL	.
.	.	64bb-\	.
!	!	!LO:TX:b:t=poco rit.	!
32f\JJJ)	.	64aa\	]
.	.	64gg\JJJJ	.
(32F\LLL	.	64ff\LLLL	.
.	.	64ee\	.
32A\	.	64gg\	.
.	.	64ff\JJJJ	.
32e-\	.	64ee-X\LLLL	.
.	.	64a\	.
32f\JJJ)	.	64dd;\	.
.	.	64cc\JJJJ	.
=41	=41	=41	=41
16B-\ 16d	.	16b-\)	.
16g\LL	.	16g/LL 16b- 16dd	.
16d\JJ	.	16a'/JJ 16ff	.
(16e-\LL	.	(16g/LL 16b-	.
16B-'\JJ)	.	16f'/JJ) 16dd	.
(16c\LL	.	(16e-/LL 16g	.
16G'\JJ)	.	16d'/JJ) 16b-	.
16D;\ 16A	.	16c;</ 16d 16f#X 16a	.
!LO:LB:g=original	!	!LO:LB:g=original	!
=42||	=42||	=42||	=42||
*k[f#]	*	*k[f#]	*
*G:	*	*G:	*
!	!	!LO:TX:a:B:t=All&colon;o vivo.	!
*	*	*tuplet	*
!	!	!LO:TUP:b	!
1r	.	(12d'/L 12dd	p
.	.	12d'/ 12dd	.
.	.	12d'/J 12dd)	.
.	.	8d/ 8dd	.
.	.	8r	.
!	!	!LO:TUP:b	!
.	.	(12d'/L 12dd	.
.	.	12d'/ 12dd	.
.	.	12d'/J 12dd)	.
.	.	8d/ 8dd	.
.	.	8r	.
=43	=43	=43	=43
*Xtuplet	*	*Xtuplet	*
12D'\L 12F#	.	12d'/L 12a	pp
12D'\ 12F#	.	12d'/ 12a	.
12D'\J 12F#	.	12d'/J 12a	.
12D'\L 12G	.	12d'/L 12b	.
12D'\ 12G	.	12d'/ 12b	.
12D'\J 12G	.	12d'/J 12b	.
4D'\ 4A	.	4d'/ 4cc	.
4r	.	4r	.
=44	=44	=44	=44
1r	.	12d'/L 12dd	.
.	.	12d'/ 12dd	.
.	.	12d'/J 12dd	.
.	.	8d'/ 8dd	.
.	.	8r	.
.	.	12d'/L 12dd	.
.	.	12d'/ 12dd	.
.	.	12d'/J 12dd	.
.	.	8d'/ 8dd	.
.	.	8r	.
=45	=45	=45	=45
12D'\L 12G	.	12d'/L 12b	.
12D'\ 12G	.	12d'/ 12b	.
12D'\J 12G	.	12d'/J 12b	.
12D'\L 12A	.	12d'/L 12cc	.
12D'\ 12A	.	12d'/ 12cc	.
12D'\J 12A	.	12d'/J 12cc	.
4D\ 4B	.	4d/ 4dd	.
4r	.	4r	.
=46	=46	=46	=46
12EE'/L 12E	.	12g#X'\L 12b 12dd 12ee	f
12EE'/ 12E	.	12g#'\ 12b 12dd 12ee	.
12EE'/J 12E	.	12g#'\J 12b 12dd 12ee	.
4EE'/ 4E	.	4g#'\ 4b 4dd 4ee	.
12AAA'/L 12AA	.	12gn'\L 12cc#X 12aa	.
12AAA'/ 12AA	.	12g'\ 12cc# 12aa	.
12AAA'/J 12AA	.	12g'\J 12cc# 12aa	.
4AAA'/ 4AA	.	4g'\ 4cc# 4aa	.
=47	=47	=47	=47
12DD'/L 12D	.	12f#'/L 12a 12cc 12dd	.
12DD'/ 12D	.	12f#'/ 12a 12cc 12dd	.
12DD'/J 12D	.	12f#'/J 12a 12cc 12dd	.
4DD'/ 4D	.	4f#'/ 4a 4cc 4dd	.
12GGG'/L 12GG	.	12g'\L 12b 12dd 12gg	.
12GGG'/ 12GG	.	12g'\ 12b 12dd 12gg	.
12GGG'/J 12GG	.	12g'\J 12b 12dd 12gg	.
4GGG'/ 4GG	.	4g'\ 4b 4dd 4gg	.
=48	=48	=48	=48
4CC'/ 4C	.	4e'/ 4g#X 4ee	.
!	!	!LO:TX:b:t=poco rit.	!
4CC'/ 4C	.	4e'/ 4a 4cc	.
4DD'/ 4D	.	4d'/ 4gn 4b	.
4DD'/ 4D	.	4c'/ 4d 4f# 4a	.
!LO:PB:g=original	!	!LO:PB:g=original	!
=49||	=49||	=49||	=49||
!	!	!LO:TX:a:B:t=Largo maestoso.	!
4GG^^:\ 4BB: 4D: 4G:	.	4B:/ 4d: 4g: 4b:	.
4ryy	.	4ryy	.
4AA^^:\ 4C#X: 4E: 4A:	.	4A:/ 4c#X: 4e: 4a:	.
4ryy	.	4ryy	.
=50	=50	=50	=50
4DD^^:\ 4FF#: 4AA: 4D:	.	1ryy	.
4ryy	.	.	.
4F#:/ 4A: 4d:	.	.	.
4ryy	.	.	.
=51	=51	=51	=51
4GG:\ 4BB: 4D: 4G:	.	4B^^<:/ 4d: 4g: 4b:	.
4ryy	.	4ryy	.
4C:\ 4E: 4A:	.	4c^^<:/ 4e: 4a: 4cc:	.
4ryy	.	4ryy	.
=52	=52	=52	=52
4DD^^:\ 4AA: 4F#: 4A:	.	4d:\ 4f#: 4a:	.
4ryy	.	4ryy	.
2ryy	.	2ryy	.
=53	=53	=53	=53
4GG:\ 4D: 4B:	.	4d^^<:/ 4g: 4b: 4dd:	.
4ryy	.	4ryy	.
4EE^^:\ 4BB: 4G:	.	4B:/ 4e: 4g: 4b:	.
4ryy	.	4ryy	.
=54	=54	=54	=54
4AA:\ 4C: 4E: 4A:	.	4c^^<:/ 4e: 4a: 4cc:	.
4ryy	.	4ryy	.
4DD^^:\ 4AA: 4F#:	.	4A:/ 4d: 4f#: 4a:	.
4ryy	.	4ryy	.
=55	=55	=55	=55
*^	*	*	*
2rcyy	4GG:\ 4BB: 4D: 4G:	.	4.B^^<:/ 4.d: 4.g: 4.b:	.
.	4rEEyy	.	.	.
.	.	.	8c/	.
4.A^^</	4DD:\ 4FF#: 4AA: 4D:	.	4c:/ 4f#: 4a:	.
.	4rEEyy	.	4ryy	.
8B^^</	.	.	.	.
*v	*v	*	*	*
=56	=56	=56	=56
4GGG^^:\ 4BBB: 4DD: 4GG: 4G:	.	4d:/ 4g: 4b:	.
4ryy	.	4ryy	.
2ryy	.	2ryy	.
=57	=57	=57	=57
4GG^^:\ 4BB: 4D: 4G:	.	4B^^<:/ 4d: 4g: 4b:	.
4ryy	.	4ryy	.
4C^^:\ 4E: 4A:	.	4c^^<:/ 4e: 4a: 4cc:	.
4ryy	.	4ryy	.
=58	=58	=58	=58
4DD^^:\ 4AA: 4D:	.	4A^^<:/ 4d: 4f#: 4a:	.
4ryy	.	4ryy	.
2ryy	.	2ryy	.
=59	=59	=59	=59
4GG^^:\ 4D: 4B:	.	4d^^<:/ 4g: 4b: 4dd:	.
4ryy	.	4ryy	.
4C^^:\ 4E: 4G: 4c:	.	4e^^<:/ 4g: 4cc: 4ee:	.
4ryy	.	4ryy	.
=60	=60	=60	=60
4D^^:\ 4F#: 4A: 4c:	.	4d^^<:/ 4f#: 4a: 4dd:	.
4ryy	.	4ryy	.
4GG^^:\ 4D: 4B:	.	4d:/ 4g: 4b: 4dd:	.
4ryy	.	4ryy	.
=61	=61	=61	=61
4C^^:\ 4E: 4G: 4c:	.	4e^^<:/ 4g: 4cc: 4ee:	.
4ryy	.	4ryy	.
4DD;:\ 4AA: 4F#:	.	4d^^<;:/ 4f#: 4a: 4dd:	.
4ryy	.	4ryy	.
!LO:LB:g=original	!LO:LB:g=original	!LO:LB:g=original	!LO:LB:g=original
=62||	=62||	=62||	=62||
!	!	!LO:TX:a:B:t=Tempo 1.o	!
12BBB'/L 12BB	.	12B'/L 12b	pp
12BBB'/ 12BB	.	12B'/ 12b	.
!	!	!LO:TX:b:t=misterioso	!
12BBB'/J 12BB	.	12B'/J 12b	.
12BBB'/L 12BB	.	12B'/L 12b	.
12BBB'/ 12BB	.	12B'/ 12b	.
12BBB'/J 12BB	.	12B'/J 12b	.
4BBB'/ 4BB	.	4B'/ 4b	.
4DD#X'/ 4BB	.	4B'/ 4a	.
=63	=63	=63	=63
4EE'/ 4BB	.	4B'/ 4g	.
!	!	!	!LO:HP:t=cres.
((4CC^^/ 4C	.	((4A#X^^</ 4e 4g	<
4BBB'/)) 4BB	.	4B'/)) 4d#X 4f#	.
4r	.	4r	.
=64	=64	=64	=64
12BBB'/L 12BB	.	12B'/L 12b	.
12BBB'/ 12BB	.	12B'/ 12b	.
12BBB'/J 12BB	.	12B'/J 12b	.
12BBB'/L 12BB	.	12B'/L 12b	<
12BBB'/ 12BB	.	12B'/ 12b	.
12BBB'/J 12BB	.	12B'/J 12b	.
8BBB'/ 8BB	.	8B'/ 8b	.
8r	.	8r	.
8DD#X'/ 8BB	.	8B'/ 8a	[
8r	.	8r	.
=65	=65	=65	=65
8EE'/ 8BB	.	8B'/ 8g	.
8r	.	8r	.
*	*above	*	*
!	!LO:HP:t=cres.	!	!
12CC'/L 12C	<	12A#X'/L 12e 12g	.
12CC'/ 12C	.	12A#'/ 12e 12g	.
12CC'/J 12C	.	12A#'/J 12e 12g	.
4BBB'/ 4BB	.	4B'/ 4d#X 4f#	.
4r	.	4r	.
=66	=66	=66	=66
12DD'/L 12D	.	12d'/L 12dd	f
12DD'/ 12D	.	12d'/ 12dd	.
12DD'/J 12D	.	12d'/J 12dd	.
12DD'/L 12D	.	12d'/L 12dd	.
12DD'/ 12D	.	12d'/ 12dd	.
12DD'/J 12D	.	12d'/J 12dd	.
8DD'/ 8D	.	8d'/ 8dd	.
8r	.	8r	.
8FF#'/ 8F#	.	8d'/ 8cc	.
8r	.	8r	.
=67	=67	=67	=67
12GG'/L 12G	.	12d'/L 12g 12b	.
12GG'/ 12G	.	12d'/ 12g 12b	.
12GG'/J 12G	.	12d'/J 12g 12b	.
8GG'/ 8G	.	8d'/ 8g 8b	.
8r	.	8r	.
!	!	!	!LO:HP:t=cres.
12CC#X'/L 12C#X	.	12g'/L 12b-X 12ee	<
12CC#'/ 12C#	.	12g'/ 12b- 12ee	.
12CC#'/J 12C#	.	12g'/J 12b- 12ee	.
8CC#'/ 8C#	.	8g'/ 8b- 8ee	.
8r	.	8r	.
=68	=68	=68	=68
12DD'/L 12D	.	12d'/L 12g 12a	.
12DD'/ 12D	.	12d'/ 12g 12a	.
12DD'/J 12D	.	12d'/J 12g 12a	.
8DD'/ 8D	.	8d'/ 8g 8a	.
8r	.	8r	.
12DD'/L 12D	.	12d'/L 12f# 12a 12dd	f
12DD'/ 12D	.	12d'/ 12f# 12a 12dd	.
12DD'/J 12D	.	12d'/J 12f# 12a 12dd	.
8DD'/ 8D	.	8d'/ 8f# 8a 8dd	.
8r;	.	8r;	.
==	==	==	==
*-	*-	*-	*-
!!!RDF**kern: > = above
!!!RDF**kern: < = below
!!!system-decoration: [(s1,s2)]
!!!ENC: Solarz Mateusz
!!!END: 2022-08-02
!!!ENC: Julita Ruszuk
!!!END: 2022-09-05
!!!YEC: Copyright 2022 Narodowy Instytut Fryderyka Chopina (https://polishscores.org)
!!!YEM: License CC-BY-4.0 (https://creativecommons.org/licenses/by/4.0)
